X:1
T:Title
%%score 1 { ( 2 5 7 ) | ( 3 4 6 ) }
L:1/8
M:6/8
K:D
V:1 treble nm="Choir Aahs"
V:2 treble nm="Grand Piano"
V:5 treble 
V:7 treble 
V:3 bass 
V:4 bass 
V:6 bass 
V:1
 z6[Q:1/4=100] | z6 | z6 | z6 |[M:5/8] z5 |[M:1/8] D |[M:3/4] F>E FD- D/E/F | A>B A F2 G | %8
 A>B A F2 D |[M:5/8] EA- A3 |[M:1/8] G |[M:3/4] F>E FD- D/E/F | A>B A F2 G | A>B A F2 E | D6 | %15
 d4- dc | c6 | B2 BB- B/c/B | A4- AA | d>A F E2 F | E4- EG | F>E FD- D/E/F |[M:7/8] A>BA d3 d | %23
[M:3/4] dA F E2 F |[M:5/8] D-D- D3 |] %25
V:2
 z3 z2 D | F>EF D>EF | A>BA [DFd]2 [D=Fd] | [DFd][FA][DF] [G,A,CE]2 [CF] | %4
[M:5/8][K:bass] [D,F,A,D]-[D,F,A,D]- [D,F,A,D]3 |[M:1/8] z |[M:3/4][K:treble] [A,DF]>E FD- D/E/F | %7
 [FA]>B A F2 G | A>B A F2 D |[M:5/8] E z D z G, |[M:1/8] [B,CG] |[M:3/4] [A,DF]>E FD- D/E/F | %12
 [FA]>B A F2 G | A>B A [DF]2 [CE] | [A,D]6 | d2- [Fd-] [Gd]2 c | c->[Gc-] [Gc-] [Gc]3 | %17
 [CGB]2 [CGB][CGB]- [CGB]/[Ac]/[GB] | [DFA]4- [DFA][CGA] | [DFd]>A F [^G,DE]2 [G,DF] | %20
 C2 D C2 [B,CG] | [A,DF]>E FD- D/E/F |[M:7/8] A>BA [DFd]3 [D=Fd] | %23
[M:3/4] [DFd][FA] [DF] [G,CE]2 [CF] |[M:5/8][K:bass] [D,F,A,D]-[D,F,A,D]- [D,F,A,D]3 |] %25
V:3
 z6 | [A,D]>[G,D][A,D] [D,A,]->[D,-G,A,][D,A,D] | [F,D]>[G,D][F,D] [B,,B,]2 [^A,,^G,] | %3
 A,-[A,D]A, z2 A, |[M:5/8] D,,-D,,- D,,3 |[M:1/8] D | %6
[M:3/4] z z/ [G,D]/ [A,D][D,A,]- [D,A,]/-[D,-G,A,]/[D,A,D] | %7
 z z/[K:treble] G/ F[K:bass] [D,A,D]2 [D,A,C] | A,4 z2 |[M:5/8] z A- A3 |[M:1/8] A,, | %11
[M:3/4] z z/ [G,D]/ [A,D][D,A,]- [D,A,]/-[D,-G,A,]/[D,A,D] | %12
 z z/[K:treble] G/ F[K:bass] [D,A,D]2 [E,A,C] | [F,D]2 z2 z2 | [D,F,]6 | %15
 [D,A,]2 [D,A,] [E,A,]2 [A,EG] | .A,,>E [E,E] [A,E]3 | [A,,A,]4 z/ C/C | z2 z A,3 | %19
 z z/[K:treble] [DF]/ D[K:bass] B,,2 B,, | A,,2 ^A,, =A,,2 A,, | %21
 z z/ [G,D]/ [A,D][D,A,]- [D,A,]/-[D,-G,A,]/[D,A,D] |[M:7/8] [F,D]>[G,D][F,D] [B,,B,]3 [^A,,^G,] | %23
[M:3/4] A,-[A,D] z2 z A, |[M:5/8] D,,-D,,- D,,3 |] %25
V:4
 x6 | D,3 .F,3 | D,3 z3 | A,,3 A,,3 |[M:5/8] x5 |[M:1/8] x |[M:3/4] D,3 .F,3 | %7
 [D,D]4[K:treble][K:bass] z2 | [F,D]>[G,D] [F,D] [D,A,D]2 [B,,^G,] |[M:5/8] z2 B,, A, z | %10
[M:1/8] x |[M:3/4] D,3 .F,3 | [D,D]4[K:treble][K:bass] z2 | A,->[G,A,-D] [F,A,D] [A,,A,]2 [A,,G,] | %14
 x6 | x6 | A,4 z2 | z2 z [A,,A,]3 | D,F, .B,2 F,E, | [D,A,]4[K:treble][K:bass] z2 | x6 | D,3 .F,3 | %22
[M:7/8] D,3 z z z2 |[M:3/4] z2 A,4 |[M:5/8] x5 |] %25
V:5
 x6 | x6 | x6 | x6 |[M:5/8][K:bass] x5 |[M:1/8] x |[M:3/4][K:treble] x6 | x6 | x6 | %9
[M:5/8] [A,-C]2 A, C2 |[M:1/8] x |[M:3/4] x6 | x6 | x6 | x6 | F2 z2 z2 | [EG]2 z2 z2 | x6 | %18
 A,4 z2 | x6 | [G,E]6 | x6 |[M:7/8] x7 |[M:3/4] x6 |[M:5/8][K:bass] x5 |] %25
V:6
 x6 | x6 | x6 | x6 |[M:5/8] x5 |[M:1/8] x |[M:3/4] x6 | x3/2[K:treble] x3/2[K:bass] x3 | x6 | %9
[M:5/8] A,,2 z A,,2 |[M:1/8] x |[M:3/4] x6 | x3/2[K:treble] x3/2[K:bass] x3 | x6 | x6 | x6 | x6 | %17
 x6 | x6 | x3/2[K:treble] x3/2[K:bass] x3 | x6 | x6 |[M:7/8] x7 |[M:3/4] A,,3 A,,3 |[M:5/8] x5 |] %25
V:7
 x6 | x6 | x6 | x6 |[M:5/8][K:bass] x5 |[M:1/8] x |[M:3/4][K:treble] x6 | x6 | x6 |[M:5/8] x5 | %10
[M:1/8] x |[M:3/4] x6 | x6 | x6 | x6 | x6 | z C, z2 z2 | x6 | x6 | x6 | x6 | x6 |[M:7/8] x7 | %23
[M:3/4] x6 |[M:5/8][K:bass] x5 |] %25

